!!!OTL: Winterrosen
!!!OTL-incipit:Es wollt ein maegdlein wasser holln
!!!ARE: Europa, Mitteleuropa, Deutschland
!!!YOR: 7, S. 59
!!    1530 Handschrift Muenchen
!!!SCT: Q1145B
!!!YEM: Copyright 1995, estate of Helmut Schaffrath.
**kern	**text
*ICvox	*
*M4/4	*
*met(c)	*
*k[b-]	*
*F:	*
!LO:TX:a:t=a München UB 328/331, fol 138 b	!
{4f	Es
=1	=1
4f	wollt
4f	ein
4g	mägd-
4g	-lein
=2	=2
4a	was-
4a	-ser
4f}	holln
{4f	bey
=3	=3
(4b-	ei-
4a)	.
4g	-nem
[4a	küe-
=4	=4
4a]	.
4g	-len
(8fL	Brun-
8eJ)	.
4f	.
=5	=5
1g	-nen
=6	=6
4r}	.
{4g	sy
2b-	hett
=7	=7
4b-	ain
2a	schnee-
4a	-weys
=8	=8
4g	he-
4g	-met
(4.f	an
8g	.
=9	=9
4.a	.
8g	.
4f	.
8eL	.
8dJ	.
=10	=10
2e)}	.
{2c	dar-
=11	=11
4f	-durch
4f	schin
(2a	yr
=12	=12
4g)	.
4f	die
2g	sun-
=13	=13
!LO:N:vis=1	!
2.f}	-nen.
==	==
!!!AGN: ???, Lyrik
!! Vergleich zu Q0145, anderes Lied mit gleichem Textinzipit.
!!    Wahrscheinlich KEINE zur Balladengruppe gehoerende Melodie.
!!    Letzten Notenwert rhythmisch korrigiert.
!!!ONB: ESAC (Essen Associative Code) Database: BALLADE
!!!AMT: simple quadruple
!!!AIN: vox
!!!EED: Helmut Schaffrath
!!!EEV: 1.0
!!!source: Deutsche Volkslieder mit ihren Melodien Balladen. Herausgegeben vom Deutschen Volksliedarchiv. Siebenterer Band. Freiburg/Breisgau 1982.
!!!page: 59
!!!ENC: Anna Maria Matuszewska
!!!EEV: 2025/03/07
*-	*-
